X: 26900
T: Minstrel's Fancy, The
R: hornpipe
M: 4/4
K: Dmajor
dB|Ac Ad GB Gd|AB Ad ~f3 e|df gf ed Bc|dB AG FE DF|
AD (3D/D/D/ cD (3D/D/D/|(3ABA AA f2 fe|df gf ed Bc|dg fe d2:|
|:ef|~g3e cA Bc|dc de fd ef|~g3e cA Bc|dB AG FE DF|
Ac Ad GB Gd|AF Ad f2 fe|df gf ed Bc|dA fe d2:|

